public/buildel-by-elp-logo-black.svg

<svg width="126" height="44" viewBox="0 0 126 44" fill="none" xmlns="http://www.w3.org/2000/svg">
<g clip-path="url(#clip0_416_282)">
<path d="M14.2306 9.6509C14.5043 9.52803 16.4479 8.56182 16.4479 5.49563C16.4479 2.64167 14.3256 -6.10352e-05 9.37724 -6.10352e-05H0.882405C0.184275 -6.10352e-05 -3.05176e-05 0.335042 -3.05176e-05 0.882377V19.1176C-3.05176e-05 19.6649 0.184275 20 0.882405 20H9.8017C14.0184 20 17.0231 18.0285 17.0231 14.1748C17.0231 10.8964 14.4764 9.74026 14.2306 9.6509ZM9.86314 15.6883H4.764V4.27809H9.37724C10.9578 4.27809 11.8961 4.61319 11.8961 5.98153C11.8961 7.16556 11.1365 7.80225 9.37724 7.80225H8.9807C8.28257 7.80225 8.10385 8.13735 8.10385 8.6791V10.9857C8.10385 11.5331 8.28257 11.8682 8.9807 11.8682H9.67883C11.1365 11.8682 12.1977 12.2926 12.1977 13.7168C12.1977 15.0852 11.3488 15.6883 9.86314 15.6883ZM35.7777 0.0334486H32.7729C32.2256 0.0334486 31.8961 0.21217 31.8961 0.910301V13.2309C31.8961 15.1466 30.6171 15.8548 28.6177 15.8548C26.6126 15.8548 25.3672 15.1466 25.3672 13.2309V0.910301C25.3672 0.21217 25.0377 0.0334486 24.4903 0.0334486H21.4856C20.9383 0.0334486 20.6032 0.21217 20.6032 0.910301V13.9011C20.6032 18.6652 25.0042 20 28.6177 20C32.2256 20 36.6601 18.6652 36.6601 13.9011V0.910301C36.6601 0.21217 36.325 0.0334486 35.7777 0.0334486ZM49.5839 15.8447H47.6738V4.25016H49.4945C50.1927 4.25016 50.377 3.91506 50.377 3.36772V0.910302C50.377 0.368552 50.1927 0.0334491 49.4945 0.0334491H41.0611C40.363 0.0334491 40.1787 0.368552 40.1787 0.910302V3.36772C40.1787 3.91506 40.363 4.25016 41.0611 4.25016H42.9098V15.8447H40.9997C40.3016 15.8447 40.1173 16.1742 40.1173 16.7216V19.1176C40.1173 19.6649 40.3016 20 40.9997 20H49.5839C50.282 20 50.4663 19.6649 50.4663 19.1176V16.7216C50.4663 16.1742 50.282 15.8447 49.5839 15.8447ZM67.886 15.7498H59.1455V0.910302C59.1455 0.212171 58.8104 0.0334491 58.263 0.0334491H55.2583C54.7165 0.0334491 54.3814 0.212171 54.3814 0.910302V19.1176C54.3814 19.6649 54.5657 20 55.2583 20H67.886C68.5842 20 68.7629 19.6649 68.7629 19.1176V16.6322C68.7629 16.0849 68.5842 15.7498 67.886 15.7498ZM79.7207 0.0334491H72.9237C72.2256 0.0334491 72.0413 0.368552 72.0413 0.910302V19.1176C72.0413 19.6649 72.2256 20 72.9237 20H79.7207C83.3286 20 87.8805 17.9391 87.8805 13.1695V6.85838C87.8805 2.12784 83.3286 0.0334491 79.7207 0.0334491ZM83.1164 12.745C83.1164 14.6886 81.7202 15.7833 79.7207 15.7833H76.8053V4.25016H79.7207C81.7202 4.25016 83.1164 5.37276 83.1164 7.28284V12.745ZM106.244 15.7498H96.5596V11.7453H104.697C105.395 11.7453 105.574 11.4102 105.574 10.8684V8.50038C105.574 7.95305 105.395 7.61794 104.697 7.61794H96.5596V4.3116H105.725C106.423 4.3116 106.607 3.97649 106.607 3.42916V0.910302C106.607 0.368552 106.423 0.0334491 105.725 0.0334491H92.6501C91.9519 0.0334491 91.7676 0.368552 91.7676 0.910302V19.1176C91.7676 19.6649 91.9519 20 92.6501 20H106.244C106.942 20 107.121 19.6649 107.121 19.1176V16.6322C107.121 16.0849 106.942 15.7498 106.244 15.7498ZM124.3 15.7498H115.56V0.910302C115.56 0.212171 115.225 0.0334491 114.677 0.0334491H111.673C111.131 0.0334491 110.796 0.212171 110.796 0.910302V19.1176C110.796 19.6649 110.975 20 111.673 20H124.3C124.999 20 125.177 19.6649 125.177 19.1176V16.6322C125.177 16.0849 124.999 15.7498 124.3 15.7498Z" fill="black"/>
</g>
<path d="M3.5 35.86C4.17333 35.86 4.74667 36.1167 5.22 36.63C5.7 37.1367 5.94 37.76 5.94 38.5C5.94 39.24 5.7 39.8667 5.22 40.38C4.74667 40.8867 4.17333 41.14 3.5 41.14C2.8 41.14 2.26 40.8967 1.88 40.41V41H0.59V34H1.88V36.59C2.26 36.1033 2.8 35.86 3.5 35.86ZM2.27 39.52C2.53 39.78 2.86 39.91 3.26 39.91C3.66 39.91 3.99 39.78 4.25 39.52C4.51667 39.2533 4.65 38.9133 4.65 38.5C4.65 38.0867 4.51667 37.75 4.25 37.49C3.99 37.2233 3.66 37.09 3.26 37.09C2.86 37.09 2.53 37.2233 2.27 37.49C2.01 37.75 1.88 38.0867 1.88 38.5C1.88 38.9133 2.01 39.2533 2.27 39.52ZM10.1498 36H11.4398V41H10.1498V40.44C9.83643 40.9067 9.33977 41.14 8.65977 41.14C8.1131 41.14 7.65977 40.9567 7.29977 40.59C6.94643 40.2233 6.76977 39.7167 6.76977 39.07V36H8.05977V38.91C8.05977 39.2433 8.14977 39.5 8.32977 39.68C8.50977 39.8533 8.74977 39.94 9.04977 39.94C9.3831 39.94 9.64977 39.8367 9.84977 39.63C10.0498 39.4233 10.1498 39.1133 10.1498 38.7V36ZM13.2613 35.4C13.0479 35.4 12.8613 35.3233 12.7013 35.17C12.5479 35.01 12.4713 34.8233 12.4713 34.61C12.4713 34.3967 12.5479 34.21 12.7013 34.05C12.8613 33.89 13.0479 33.81 13.2613 33.81C13.4813 33.81 13.6679 33.89 13.8213 34.05C13.9813 34.21 14.0613 34.3967 14.0613 34.61C14.0613 34.8233 13.9813 35.01 13.8213 35.17C13.6679 35.3233 13.4813 35.4 13.2613 35.4ZM12.6213 41V36H13.9113V41H12.6213ZM15.092 41V33.7H16.382V41H15.092ZM20.4227 37.24H19.2927V39.32C19.2927 39.4933 19.336 39.62 19.4227 39.7C19.5093 39.78 19.636 39.8267 19.8027 39.84C19.9693 39.8467 20.176 39.8433 20.4227 39.83V41C19.536 41.1 18.9093 41.0167 18.5427 40.75C18.1827 40.4833 18.0027 40.0067 18.0027 39.32V37.24H17.1327V36H18.0027V34.99L19.2927 34.6V36H20.4227V37.24ZM26.8203 35.86C27.4936 35.86 28.067 36.1167 28.5403 36.63C29.0203 37.1367 29.2603 37.76 29.2603 38.5C29.2603 39.24 29.0203 39.8667 28.5403 40.38C28.067 40.8867 27.4936 41.14 26.8203 41.14C26.1203 41.14 25.5803 40.8967 25.2003 40.41V41H23.9103V34H25.2003V36.59C25.5803 36.1033 26.1203 35.86 26.8203 35.86ZM25.5903 39.52C25.8503 39.78 26.1803 39.91 26.5803 39.91C26.9803 39.91 27.3103 39.78 27.5703 39.52C27.837 39.2533 27.9703 38.9133 27.9703 38.5C27.9703 38.0867 27.837 37.75 27.5703 37.49C27.3103 37.2233 26.9803 37.09 26.5803 37.09C26.1803 37.09 25.8503 37.2233 25.5903 37.49C25.3303 37.75 25.2003 38.0867 25.2003 38.5C25.2003 38.9133 25.3303 39.2533 25.5903 39.52ZM33.2348 36H34.6148L32.7948 41C32.5348 41.72 32.1881 42.24 31.7548 42.56C31.3281 42.8867 30.7948 43.0333 30.1548 43V41.8C30.5014 41.8067 30.7748 41.7333 30.9748 41.58C31.1814 41.4267 31.3448 41.18 31.4648 40.84L29.4148 36H30.8248L32.1248 39.36L33.2348 36Z" fill="black"/>
<g clip-path="url(#clip1_416_282)">
<path d="M67.4217 32.2091C67.3945 34.5025 65.5033 36.3643 63.1768 36.3373C60.8503 36.3103 58.9863 34.4351 58.9999 32.1282C59.0271 29.8213 60.9183 27.973 63.2448 28C65.5849 28.0135 67.4489 29.9022 67.4217 32.2091Z" fill="#21AE35"/>
<path d="M63.2041 33.275V33.8955H61.1225V30.5768H63.1769V31.1974H61.7756V31.9124H63.0545V32.5195H61.7756V33.275H63.2041Z" fill="white"/>
<path d="M65.6122 33.275V33.8955H63.6666V30.5768H64.3333V33.275H65.6122Z" fill="white"/>
<path d="M69.9932 35.6628C69.9932 36.3508 69.4354 36.8904 68.7551 36.8904C68.0612 36.8904 67.517 36.3373 67.517 35.6628C67.517 34.9747 68.0748 34.4351 68.7551 34.4351C69.4354 34.4351 69.9932 34.9882 69.9932 35.6628Z" fill="black"/>
<path d="M56.905 30.388C55.5717 28.9445 52.7826 28.0002 49.8302 28.0002C49.286 28.0002 48.7281 28.0271 48.1839 28.0946C44.5241 28.5398 41.4764 30.1182 39.8438 32.4251C38.9866 33.5988 38.769 34.9344 39.2451 36.0406C39.6397 36.9445 40.6873 38.0777 43.422 38.4015C43.5445 38.415 43.7349 38.4015 43.8302 38.1856L44.2792 37.2548C44.3064 37.2008 44.3064 37.1334 44.2656 37.0794C44.2383 37.0254 44.1839 36.985 44.1159 36.985C41.7758 36.7826 40.9594 36.0002 40.6737 35.3796C40.388 34.759 40.5377 34.0035 41.0819 33.248C42.4424 31.3324 45.0547 30.0238 48.2383 29.6595C48.6873 29.6055 49.1499 29.5786 49.6125 29.5786C52.1023 29.5786 54.5649 30.3745 55.6125 31.5077C55.9662 31.8855 56.1159 32.2632 56.0887 32.641C55.939 34.3138 52.3744 35.7438 49.5445 35.7438C49.4764 35.7438 49.4084 35.7438 49.3404 35.7438L50.6057 33.0052C50.6465 32.9243 50.6329 32.8163 50.5513 32.7624L49.6533 32.0878C49.6125 32.0474 49.5445 32.0339 49.4764 32.0474C48.2928 32.3037 46.5785 32.6949 45.7894 33.8821C45.49 34.3408 45.422 34.8804 45.5989 35.4066C45.8166 36.0541 46.4152 36.5937 47.2179 36.8905L44.388 43.0693C44.3472 43.1502 44.3608 43.2582 44.4424 43.3121L45.286 43.9597C45.3268 43.9867 45.3676 44.0002 45.4084 44.0002C45.422 44.0002 45.4492 44.0002 45.4628 43.9867C45.5309 43.9732 45.5853 43.9192 45.6125 43.8652L48.6601 37.2278C48.973 37.2683 49.2996 37.2818 49.6397 37.2818C51.3676 37.2818 53.3132 36.8231 54.837 36.0541C56.5921 35.1637 57.6125 33.9496 57.7349 32.6275C57.8302 31.8315 57.5309 31.0625 56.905 30.388ZM48.6737 33.7202L47.871 35.4875C47.5445 35.3526 47.2315 35.1098 47.1363 34.84C47.1091 34.7455 47.1091 34.6511 47.1771 34.5566C47.3676 34.1654 48.1703 33.8416 48.6737 33.7202Z" fill="black"/>
<path d="M86.9184 40.1686L85.8707 39.4806C85.8299 39.4536 85.7619 39.4401 85.7075 39.4671C84.17 40.0202 82.5918 40.9511 81.4081 41.72C82.2517 39.4536 82.5646 38.5902 82.6735 38.3069C82.7007 38.2394 82.6871 38.145 82.619 38.091L81.7891 37.4705C81.7347 37.43 81.6666 37.4165 81.6122 37.4435C79.966 38.091 78.7687 38.914 77.7891 39.7909L78.2381 38.5632C78.2653 38.4957 78.2381 38.4013 78.1837 38.3608L77.3401 37.7268C77.2721 37.6728 77.1632 37.6863 77.1088 37.7538C76.5374 38.3473 75.9388 38.6981 75.3265 38.7791C75.2449 38.5497 75.1088 38.3473 74.932 38.172C74.5782 37.8347 74.0884 37.5784 72.8911 37.7807C72.8231 37.7942 72.7823 37.8347 72.7551 37.8887C72.5918 38.3204 72.4558 38.6846 72.3877 38.8735C72.3605 38.9544 72.3741 39.0354 72.4149 39.1028C72.6735 39.4401 73.2449 39.7909 73.9524 39.9662C73.4354 41.3153 71.8843 42.7723 70.7007 42.5565C70.5374 42.5295 70.2517 42.3271 70.1428 41.9898C70.0476 41.6661 70.0204 40.7622 71.7075 39.1028C71.7483 39.0624 71.7619 39.0219 71.7619 38.9679C71.7619 38.914 71.7347 38.8735 71.6939 38.833L70.8911 38.2259C70.8231 38.172 70.7279 38.1855 70.6598 38.2394L67.4626 41.1129L68.4694 38.4283C68.4966 38.3473 68.4694 38.2664 68.4013 38.2259L67.585 37.6188C67.517 37.5784 67.4354 37.5784 67.3673 37.6188L63.9796 40.344C63.8571 40.2091 63.7347 40.0877 63.6258 39.9797C63.3401 39.7099 63.0816 39.4536 63.0816 39.2242C63.0816 39.1028 63.1496 38.8195 63.585 38.3608C63.6122 38.3204 63.6394 38.2799 63.6258 38.2259C63.6258 38.172 63.5986 38.1315 63.5578 38.1045L62.7415 37.4839C62.6735 37.43 62.5782 37.4435 62.5238 37.4974C61.1905 38.6307 60.1837 39.4806 59.4354 40.1146C59.4217 40.1011 59.4081 40.0877 59.3945 40.0742C58.7823 39.5076 58.5102 39.2647 59.3129 38.3204C59.3401 38.2799 59.3537 38.2394 59.3537 38.1855C59.3537 38.1315 59.3265 38.091 59.2857 38.064L58.483 37.457C58.4149 37.403 58.3197 37.4165 58.2517 37.4705L54.0612 41.5986L54.483 40.5194C54.5238 40.4384 54.4966 40.3575 54.4286 40.3035L53.5306 39.6425C53.4898 39.6155 53.449 39.602 53.3945 39.602C53.3401 39.6155 53.2993 39.6425 53.2721 39.6694C51.5442 42.1113 50.483 42.6374 49.7483 42.6374C48.4286 42.6374 49.3129 40.9511 50.1973 40.1551C50.8095 39.602 52.4558 38.3608 54.7415 39.3457C54.8367 39.3861 54.932 39.3457 54.9728 39.2647L55.3945 38.3743C55.4217 38.3339 55.4217 38.2799 55.3945 38.2394C55.3809 38.199 55.3401 38.1585 55.2993 38.145C53.1905 37.2276 50.9592 37.6593 49.2721 39.1838C48.034 40.317 47.4626 41.774 47.8435 42.8128C48.102 43.5143 48.7687 43.973 49.6803 43.973C50.3197 43.973 51.2993 43.7976 52.5918 42.5834L52.5102 43.0016C52.4966 43.0691 52.5238 43.1366 52.5782 43.177C52.6326 43.2175 53.1905 43.6357 53.449 43.8246C53.517 43.8785 53.6122 43.8651 53.6803 43.8111L57.585 39.9662C57.7755 40.3979 58.102 40.7217 58.3741 40.978C57.9932 41.3018 57.7211 41.5447 57.517 41.72C56.9047 42.2462 56.5374 42.5295 56.0068 42.9477C55.9524 42.9882 55.9115 43.1096 56.0068 43.177C56.0068 43.177 56.7279 43.7167 56.9728 43.892C57.068 43.9595 57.1088 44 57.2585 43.9865C58.2381 43.9055 59.4762 43.3389 60.0476 42.2192C60.2517 41.828 60.2653 41.4772 60.1837 41.1804C60.6326 40.8027 61.1632 40.344 61.8163 39.7909C61.9932 40.263 62.3605 40.6273 62.6598 40.9241C62.7687 41.0185 62.8503 41.1129 62.9047 41.1804C62.9047 41.1804 61.0408 42.7049 60.4966 43.1231C60.4422 43.1635 60.4013 43.285 60.4966 43.3524C60.4966 43.3524 60.9047 43.7032 61.1496 43.8785C61.2449 43.946 61.2857 43.9865 61.4354 43.973C62.5646 43.8785 64.0476 43.1231 64.4422 41.6391H64.4558L66.3741 40.0877L65.2993 42.9747C65.2721 43.0421 65.2993 43.1366 65.3537 43.177L66.1292 43.7571C66.1973 43.8111 66.2925 43.7976 66.3605 43.7436L68.7279 41.6256C68.7279 41.8684 68.7551 42.1652 68.8095 42.3406C69.0816 43.231 69.8299 43.7301 70.4013 43.8381C72.0884 44.1619 74.5646 42.543 75.2721 40.1011C75.6258 40.0742 75.966 39.9932 76.3061 39.8718L75.2041 42.8667C75.1769 42.9342 75.2041 43.0286 75.2721 43.0691L76.1156 43.6897C76.1564 43.7167 76.2109 43.7301 76.2653 43.7167C76.3197 43.7032 76.3605 43.6762 76.3877 43.6222C76.7415 42.9747 78.0612 40.7487 80.8911 39.2242C80.4013 40.5194 80.102 41.3288 79.4626 43.0961C79.4354 43.177 79.4626 43.258 79.5306 43.2984L80.4149 43.8785C80.483 43.919 80.5646 43.919 80.619 43.8785C81.3537 43.3254 84.4149 41.1399 86.8639 40.4789C86.932 40.4654 86.9864 40.4114 86.9864 40.3305C87.0136 40.2765 86.9864 40.2091 86.9184 40.1686Z" fill="black"/>
</g>
<defs>
<clipPath id="clip0_416_282">
<rect width="125.177" height="20" fill="white"/>
</clipPath>
<clipPath id="clip1_416_282">
<rect width="48" height="16" fill="white" transform="translate(39 28)"/>
</clipPath>
</defs>
</svg>

<svg width="126" height="44" fill="none" xmlns="http://www.w3.org/2000/svg"><g clip-path="url(#a)"><path d="M14.23 9.65c.274-.122 2.218-1.088 2.218-4.154C16.448 2.642 14.326 0 9.378 0H.881C.184 0 0 .335 0 .882v18.236c0 .547.184.882.882.882h8.92c4.216 0 7.221-1.971 7.221-5.825 0-3.279-2.547-4.435-2.792-4.524Zm-4.367 6.038H4.764V4.278h4.613c1.58 0 2.52.335 2.52 1.704 0 1.184-.76 1.82-2.52 1.82h-.396c-.698 0-.877.335-.877.877v2.307c0 .547.179.882.877.882h.698c1.457 0 2.519.425 2.519 1.849 0 1.368-.85 1.971-2.335 1.971ZM35.778.033h-3.005c-.547 0-.877.18-.877.877v12.32c0 1.917-1.279 2.625-3.278 2.625-2.005 0-3.25-.708-3.25-2.624V.91c0-.699-.33-.878-.878-.878h-3.004c-.548 0-.883.18-.883.877v12.991c0 4.764 4.401 6.099 8.015 6.099 3.608 0 8.042-1.335 8.042-6.099V.911c0-.699-.335-.878-.882-.878Zm13.806 15.812h-1.91V4.25h1.82c.699 0 .883-.335.883-.882V.91c0-.541-.184-.877-.883-.877h-8.433c-.698 0-.882.336-.882.877v2.458c0 .547.184.882.882.882h1.849v11.595H41c-.698 0-.883.33-.883.877v2.396c0 .547.185.882.883.882h8.584c.698 0 .882-.335.882-.882v-2.396c0-.548-.184-.877-.882-.877Zm18.302-.095h-8.74V.91c0-.698-.336-.877-.883-.877h-3.005c-.541 0-.877.18-.877.877v18.208c0 .547.185.882.877.882h12.628c.698 0 .877-.335.877-.882v-2.486c0-.547-.179-.882-.877-.882ZM79.721.033h-6.797c-.698 0-.883.336-.883.877v18.208c0 .547.185.882.883.882h6.797c3.608 0 8.16-2.06 8.16-6.83V6.857c0-4.73-4.552-6.825-8.16-6.825Zm3.395 12.712c0 1.944-1.396 3.038-3.395 3.038h-2.916V4.25h2.916c2 0 3.395 1.123 3.395 3.033v5.462Zm23.128 3.005H96.56v-4.005h8.137c.698 0 .877-.335.877-.877V8.5c0-.547-.179-.882-.877-.882H96.56V4.312h9.165c.698 0 .882-.336.882-.883V.91c0-.541-.184-.877-.882-.877H92.65c-.698 0-.882.336-.882.877v18.208c0 .547.184.882.882.882h13.594c.698 0 .877-.335.877-.882v-2.486c0-.547-.179-.882-.877-.882Zm18.056 0h-8.74V.91c0-.698-.335-.877-.883-.877h-3.004c-.542 0-.877.18-.877.877v18.208c0 .547.179.882.877.882H124.3c.699 0 .877-.335.877-.882v-2.486c0-.547-.178-.882-.877-.882Z" fill="#000"/></g><path d="M3.5 35.86c.673 0 1.247.257 1.72.77.48.507.72 1.13.72 1.87 0 .74-.24 1.367-.72 1.88-.473.507-1.047.76-1.72.76-.7 0-1.24-.243-1.62-.73V41H.59v-7h1.29v2.59c.38-.487.92-.73 1.62-.73Zm-1.23 3.66c.26.26.59.39.99.39s.73-.13.99-.39c.267-.267.4-.607.4-1.02 0-.413-.133-.75-.4-1.01-.26-.267-.59-.4-.99-.4s-.73.133-.99.4c-.26.26-.39.597-.39 1.01 0 .413.13.753.39 1.02ZM10.15 36h1.29v5h-1.29v-.56c-.314.467-.81.7-1.49.7-.547 0-1-.183-1.36-.55-.354-.367-.53-.873-.53-1.52V36h1.29v2.91c0 .333.09.59.27.77.18.173.42.26.72.26.333 0 .6-.103.8-.31.2-.207.3-.517.3-.93V36Zm3.111-.6a.784.784 0 0 1-.79-.79c0-.213.077-.4.23-.56.16-.16.347-.24.56-.24.22 0 .407.08.56.24.16.16.24.347.24.56 0 .213-.08.4-.24.56a.762.762 0 0 1-.56.23Zm-.64 5.6v-5h1.29v5h-1.29Zm2.471 0v-7.3h1.29V41h-1.29Zm5.33-3.76h-1.13v2.08c0 .173.044.3.13.38.087.08.214.127.38.14.167.007.374.003.62-.01V41c-.886.1-1.513.017-1.88-.25-.36-.267-.54-.743-.54-1.43v-2.08h-.87V36h.87v-1.01l1.29-.39V36h1.13v1.24Zm6.398-1.38c.674 0 1.247.257 1.72.77.48.507.72 1.13.72 1.87 0 .74-.24 1.367-.72 1.88-.473.507-1.046.76-1.72.76-.7 0-1.24-.243-1.62-.73V41h-1.29v-7h1.29v2.59c.38-.487.92-.73 1.62-.73Zm-1.23 3.66c.26.26.59.39.99.39s.73-.13.99-.39c.267-.267.4-.607.4-1.02 0-.413-.133-.75-.4-1.01-.26-.267-.59-.4-.99-.4s-.73.133-.99.4c-.26.26-.39.597-.39 1.01 0 .413.13.753.39 1.02ZM33.235 36h1.38l-1.82 5c-.26.72-.607 1.24-1.04 1.56-.427.327-.96.473-1.6.44v-1.2c.346.007.62-.067.82-.22.206-.153.37-.4.49-.74L29.415 36h1.41l1.3 3.36 1.11-3.36Z" fill="#000"/><g clip-path="url(#b)"><path d="M67.422 32.21a4.19 4.19 0 0 1-4.245 4.127c-2.327-.027-4.19-1.902-4.177-4.209A4.182 4.182 0 0 1 63.245 28c2.34.014 4.204 1.902 4.177 4.21Z" fill="#00CF91"/><path d="M63.204 33.275v.62h-2.081v-3.318h2.054v.62h-1.401v.715h1.278v.608h-1.278v.755h1.428ZM65.612 33.275v.62h-1.945v-3.318h.666v2.698h1.28Z" fill="#fff"/><path d="M69.993 35.663c0 .688-.558 1.227-1.238 1.227a1.229 1.229 0 0 1-1.238-1.227c0-.688.558-1.228 1.238-1.228.68 0 1.238.553 1.238 1.228ZM56.905 30.388C55.572 28.944 52.783 28 49.83 28c-.544 0-1.102.027-1.646.095-3.66.445-6.708 2.023-8.34 4.33-.857 1.174-1.075 2.51-.599 3.616.395.904 1.442 2.037 4.177 2.36.123.014.313 0 .408-.215l.45-.931a.165.165 0 0 0-.014-.176.167.167 0 0 0-.15-.094c-2.34-.202-3.157-.985-3.442-1.605-.286-.621-.136-1.377.408-2.132 1.36-1.916 3.973-3.224 7.156-3.588.45-.055.912-.081 1.374-.081 2.49 0 4.953.796 6 1.929.354.378.504.755.477 1.133-.15 1.673-3.715 3.103-6.544 3.103h-.205l1.266-2.739c.04-.08.027-.189-.055-.243l-.898-.674c-.04-.04-.108-.054-.177-.04-1.183.256-2.898.647-3.687 1.834-.299.459-.367.998-.19 1.525.218.647.816 1.187 1.619 1.484l-2.83 6.178c-.04.081-.027.19.054.243l.844.648a.22.22 0 0 0 .122.04c.014 0 .041 0 .055-.013a.227.227 0 0 0 .15-.122l3.047-6.637c.313.04.64.054.98.054 1.728 0 3.673-.459 5.197-1.228 1.755-.89 2.775-2.104 2.898-3.427.095-.796-.204-1.565-.83-2.239Zm-8.231 3.332-.803 1.767c-.327-.134-.64-.377-.735-.647a.307.307 0 0 1 .041-.283c.19-.392.993-.715 1.497-.837Z" fill="#000"/><path d="m86.918 40.169-1.047-.688a.173.173 0 0 0-.163-.014c-1.538.553-3.116 1.484-4.3 2.253.844-2.266 1.157-3.13 1.266-3.413a.19.19 0 0 0-.055-.216l-.83-.62c-.054-.041-.122-.054-.177-.027a12.36 12.36 0 0 0-3.823 2.347l.45-1.228a.187.187 0 0 0-.055-.202l-.844-.634a.17.17 0 0 0-.231.027c-.572.593-1.17.944-1.782 1.025a1.619 1.619 0 0 0-.395-.607c-.354-.337-.844-.594-2.04-.391a.187.187 0 0 0-.137.108c-.163.431-.3.796-.367.984a.27.27 0 0 0 .027.23c.258.337.83.688 1.537.863-.517 1.35-2.068 2.806-3.251 2.59-.164-.026-.45-.229-.558-.566-.095-.324-.123-1.228 1.564-2.887.041-.04.055-.081.055-.135 0-.054-.027-.095-.068-.135l-.803-.607c-.068-.054-.163-.04-.231.013l-3.197 2.874 1.006-2.685c.028-.08 0-.162-.068-.202l-.816-.607a.21.21 0 0 0-.218 0l-3.387 2.725a9.552 9.552 0 0 0-.354-.364c-.286-.27-.544-.526-.544-.756 0-.121.068-.404.503-.863.027-.04.054-.081.04-.135a.142.142 0 0 0-.067-.121l-.816-.621a.167.167 0 0 0-.218.013c-1.334 1.134-2.34 1.984-3.089 2.618l-.04-.04c-.613-.567-.885-.81-.082-1.755a.227.227 0 0 0 .04-.135.142.142 0 0 0-.067-.121l-.803-.607c-.068-.054-.163-.04-.231.014l-4.19 4.128.421-1.08c.04-.08.014-.161-.054-.215l-.898-.662a.231.231 0 0 0-.136-.04.264.264 0 0 0-.123.067c-1.728 2.442-2.789 2.968-3.524 2.968-1.32 0-.435-1.686.45-2.482.611-.553 2.258-1.794 4.544-.81.095.041.19 0 .23-.08l.422-.89a.122.122 0 0 0 0-.136.164.164 0 0 0-.095-.094c-2.108-.917-4.34-.486-6.027 1.039-1.238 1.133-1.81 2.59-1.428 3.629.258.701.925 1.16 1.836 1.16.64 0 1.62-.175 2.912-1.39l-.082.419a.175.175 0 0 0 .068.175c.055.04.612.459.871.648.068.053.163.04.231-.014l3.905-3.845c.19.432.517.756.79 1.012-.382.324-.654.567-.858.742-.612.526-.98.81-1.51 1.228-.055.04-.096.162 0 .229 0 0 .72.54.966.715.095.067.136.108.285.094.98-.08 2.218-.647 2.79-1.767.204-.391.217-.742.136-1.039.449-.377.98-.836 1.632-1.39.177.473.544.837.844 1.134.109.095.19.189.245.256 0 0-1.864 1.525-2.408 1.943-.055.04-.096.162 0 .23 0 0 .408.35.653.526.095.067.136.108.285.094 1.13-.094 2.613-.85 3.007-2.334h.014l1.918-1.551-1.075 2.887a.187.187 0 0 0 .055.202l.775.58c.068.054.163.04.231-.013l2.368-2.118c0 .242.027.54.082.715.272.89 1.02 1.39 1.591 1.497 1.687.324 4.164-1.295 4.871-3.737a3.945 3.945 0 0 0 1.034-.23l-1.102 2.996a.172.172 0 0 0 .068.202l.844.62a.19.19 0 0 0 .15.028.173.173 0 0 0 .122-.095c.353-.647 1.673-2.873 4.503-4.398-.49 1.295-.789 2.105-1.428 3.872-.028.081 0 .162.068.202l.884.58c.068.041.15.041.204 0 .735-.553 3.796-2.738 6.245-3.4a.147.147 0 0 0 .122-.148c.028-.053 0-.12-.068-.161Z" fill="#000"/></g><defs><clipPath id="a"><path fill="#fff" d="M0 0h125.177v20H0z"/></clipPath><clipPath id="b"><path fill="#fff" transform="translate(39 28)" d="M0 0h48v16H0z"/></clipPath></defs></svg>
